X:1707
T:Duncan's Barndance
O:england
R:Schottische
M:4/4
K:D
F>G|\
A2f2 A3A|B2g2B3B|cB cd ed cd|(3dcB dB AG FG|\
A2f2 A3A|B2g2 B3B|
cB cd ed cd|(3efe dc d2::\
fg|\
a2ba fe d2|cd ef g2 ef|
gf ge cA Bc|de fg a2 fg|\
a2ba fe d2|cd ef g2 ef|gf ge cA Bd|e2d2 d2:|


